icons/format-clear.svg

<svg width="24" height="24" fill="none" xmlns="http://www.w3.org/2000/svg"><g clip-path="url(#a)"><path d="M12.651 14.065 11.605 20H9.574l1.35-7.661-7.41-7.41L4.93 3.515 20.485 19.07l-1.414 1.414-6.42-6.42v.001Zm-.878-6.535.27-1.53h-1.8l-2-2H20v2h-5.927L13.5 9.257 11.773 7.53Z" /></g><defs><clipPath id="a"><path fill="#fff" d="M0 0h24v24H0z"/></clipPath></defs></svg>

<svg xmlns="http://www.w3.org/2000/svg" width="24" height="24" fill="none"><g clip-path="url(#a)"><g><path fill="#121212" d="M12.651 14.065L11.605 20H9.57401L10.924 12.339L3.51401 4.929L4.93001 3.515L20.485 19.07L19.071 20.484L12.651 14.064V14.065ZM11.773 7.53L12.043 6H10.243L8.24301 4H20V6H14.073L13.5 9.257L11.773 7.53Z"/></g></g><defs><clipPath id="a"><rect width="24" height="24" fill="white"/></clipPath></defs></svg>
